packages/bezier-icons/icons/distribute.svg

<svg width="24" height="24" viewBox="0 0 24 24" fill="none" xmlns="http://www.w3.org/2000/svg">
<path d="M17 10.0686V8H15.9225C15.0111 8 14.1492 8.41427 13.5799 9.12592L11.9818 11.1235C11.7158 11.4561 11.4114 11.7497 11.0776 12C11.4114 12.2503 11.7158 12.5439 11.9818 12.8765L13.5799 14.8741C14.1492 15.5857 15.0111 16 15.9225 16H17V13.9316C17 13.2189 17.8617 12.862 18.3657 13.3659L21.2929 16.2931C21.6834 16.6837 21.6834 17.3168 21.2929 17.7073L18.3657 20.6346C17.8617 21.1385 17 20.7816 17 20.0689V18H15.9225C14.4036 18 12.967 17.3096 12.0182 16.1235L10.4201 14.1259C9.85079 13.4143 8.98885 13 8.0775 13H3C2.44772 13 2 12.5523 2 12C2 11.4477 2.44772 11 3 11H8.0775C8.98885 11 9.85079 10.5857 10.4201 9.87409L12.0182 7.87653C12.967 6.69045 14.4036 6 15.9225 6H17V3.93137C17 3.21864 17.8617 2.86171 18.3657 3.36568L21.2929 6.29289C21.6834 6.68341 21.6834 7.31658 21.2929 7.7071L18.3657 10.6343C17.8617 11.1383 17 10.7813 17 10.0686Z" fill="#313234"/>
</svg>

<svg xmlns="http://www.w3.org/2000/svg" width="24" height="24" fill="none" viewBox="0 0 24 24"><path fill="#313234" d="M17 10.069V8h-1.078a3 3 0 0 0-2.342 1.126l-1.598 1.998q-.401.5-.904.876c.333.25.638.544.904.877l1.598 1.997A3 3 0 0 0 15.922 16H17v-2.068a.8.8 0 0 1 1.366-.566l2.927 2.927a1 1 0 0 1 0 1.414l-2.927 2.928A.8.8 0 0 1 17 20.069V18h-1.078a5 5 0 0 1-3.904-1.876l-1.598-1.998A3 3 0 0 0 8.078 13H3a1 1 0 1 1 0-2h5.078a3 3 0 0 0 2.342-1.126l1.598-1.997A5 5 0 0 1 15.922 6H17V3.931a.8.8 0 0 1 1.366-.565l2.927 2.927a1 1 0 0 1 0 1.414l-2.927 2.927A.8.8 0 0 1 17 10.07"/></svg>
